static/images/past-sponsors/wyliodrin.svg

<svg fill="none" height="331" viewBox="0 0 1085 331" width="1085" xmlns="http://www.w3.org/2000/svg"><g fill="#e44326"><path d="m271.178 109.965c-10.255-2.171-19.171 8.722-19.171 24.41 0 8.592 2.729 16.482 6.94 21.85l-8.5 21.576c-1.924-.753-3.991-1.156-6.161-1.104-2.171.052-4.355.558-6.408 1.442l-9.801-23.331c4.991-5.303 8.072-13.232 8.072-22.291 0-16.521-10.515-32.183-24.423-35.1339-15.143-3.1974-28.479 9.6579-28.479 28.9339 0 10.554 4.108 20.289 10.412 26.918l-12.777 26.412c-2.912-.923-6.044-1.391-9.359-1.313-3.366.078-6.668.715-9.839 1.833l-15.195-29.102c7.773-6.551 12.543-16.339 12.543-27.595 0-20.537-16.364-40.6965-38.448-45.3628-24.5658-5.1732-46.7142 10.4503-46.7142 35.4198 0 24.969 22.1484 45.778 46.7272 46.337 4.251.091 8.254-.429 11.984-1.456l16.222 29.753c-7.994 7.5-13.232 18.522-13.232 30.441 0 21.758 16.923 35.874 35.939 31.858 17.301-3.653 30.246-21.291 30.246-39.605 0-10.021-3.795-18.795-9.943-24.657l12.049-25.879c2.522.988 5.16 1.547 7.851 1.612 2.651.065 5.173-.377 7.513-1.209l10.32 23.747c-5.108 5.914-8.423 14.636-8.423 24.111 0 17.301 10.802 29.103 23.15 26.49 11.438-2.417 20.134-16.507 20.134-31.546 0-8.24-2.561-15.48-6.694-20.341l8.11-21.213c1.716.806 3.51 1.261 5.342 1.3 9.554.221 16.872-10.867 16.872-24.683 0-13.817-7.318-26.607-16.872-28.635zm0 42.308c-.519-.026-1.039-.13-1.533-.26-1.3-.35-2.522-1.065-3.653-2.04-1.157-1.014-2.196-2.327-3.067-3.848-1.677-2.976-2.704-6.759-2.704-10.788 0-8.968 5.017-15.402 10.957-14.376 5.694.988 10.165 8.527 10.165 16.846 0 8.318-4.471 14.817-10.165 14.466zm-26.892 70.761c-7.136 1.235-13.193-5.745-13.193-15.61 0-4.433 1.248-8.605 3.275-11.88 1.04-1.69 2.288-3.12 3.679-4.238 1.351-1.092 2.846-1.871 4.393-2.274.598-.143 1.209-.247 1.833-.286s1.222 0 1.819.065c1.508.208 2.912.78 4.173 1.663 1.274.884 2.391 2.08 3.327 3.523 1.781 2.742 2.834 6.382 2.834 10.476 0 9.086-5.329 17.391-12.153 18.574zm-32.56-74.413c-.767-.052-1.508-.169-2.249-.351-1.91-.455-3.73-1.326-5.381-2.535-1.716-1.247-3.249-2.872-4.523-4.744-2.509-3.665-4.03-8.305-4.03-13.219 0-10.944 7.435-18.574 16.17-17.066 8.319 1.43 14.779 10.684 14.779 20.68 0 4.497-1.287 8.5-3.445 11.516-1.118 1.573-2.496 2.885-4.042 3.86-1.534.949-3.25 1.586-5.082 1.794-.728.091-1.456.117-2.21.065zm-40.203 86.956c-10.957 1.885-20.329-6.499-20.329-18.808 0-5.524 1.937-10.775 5.083-14.895 1.611-2.119 3.535-3.939 5.693-5.356 2.079-1.377 4.354-2.365 6.746-2.898.923-.195 1.858-.338 2.807-.39s1.859-.039 2.769.039c2.287.234 4.432.91 6.33 1.976 1.924 1.065 3.626 2.508 5.017 4.263 2.665 3.314 4.25 7.747 4.25 12.738 0 11.126-8.006 21.551-18.353 23.331zm-50.926-92.571c-14.102-.871-26.2685-13.05-26.2685-27.075s12.1665-23.3701 26.2685-20.9265c13.245 2.2877 23.449 14.2325 23.449 26.7495 0 5.628-2.015 10.594-5.395 14.311-1.78 1.95-3.951 3.574-6.408 4.757-2.43 1.17-5.16 1.924-8.084 2.158-1.157.091-2.353.117-3.562.039z"/><path d="m430.689 187.485 21.083-76.051h19.575l-32.378 105.413h-15.507l-26.503-79.664-26.502 79.664h-15.507l-32.378-105.413h19.575l21.083 76.051 26.048-76.051h15.363z"/><path d="m533.685 141.706h19.731l-30.571 74.387-12.504 32.222h-19.731l13.7-34.34-29.675-72.282h19.575l19.874 53.617 19.575-53.617z"/><path d="m565.309 216.847v-109.936h18.977v109.936z"/><path d="m615.156 106.768c6.473 0 11.295 4.965 11.295 11.139s-4.822 11.139-11.295 11.139-11.295-4.822-11.295-11.139 4.965-11.139 11.295-11.139zm-9.488 110.079v-75.141h18.977v75.141z"/><path d="m641.347 179.348c0-20.485 15.363-39.462 41.268-39.462s41.269 18.977 41.269 39.462-15.364 39.306-41.269 39.306-41.268-18.977-41.268-39.306zm18.522 0c0 12.192 8.136 23.487 22.746 23.487s22.747-11.295 22.747-23.487-8.137-23.643-22.747-23.643-22.746 11.451-22.746 23.643z"/></g><path d="m799.922 106.911h18.977v109.936h-18.223v-12.946c-4.368 7.682-14.311 14.753-27.413 14.753-22.291 0-37.954-17.768-37.954-39.306 0-21.537 15.663-39.462 37.954-39.462 13.102 0 22.889 6.772 26.659 14.753zm-23.046 96.08c12.504 0 23.046-9.189 23.046-23.643s-10.542-23.799-23.046-23.799c-13.556 0-22.59 10.697-22.59 23.799s9.034 23.643 22.59 23.643z" fill="#111949"/><path d="m885.006 159.916h-4.068c-15.208 0-22.292 8.891-22.292 23.487v33.431h-18.977v-75.141h18.366v16.26c3.614-11.893 13.7-16.871 26.958-16.871v18.821z" fill="#111949"/><path d="m907.883 106.768c6.473 0 11.295 4.965 11.295 11.139s-4.822 11.139-11.295 11.139-11.296-4.822-11.296-11.139 4.966-11.139 11.296-11.139zm-9.489 110.079v-75.141h18.977v75.141z" fill="#111949"/><path d="m957.73 216.847h-18.977v-75.141h18.366v12.803c3.47-8.735 13.258-14.61 24.995-14.61 18.066 0 28.166 13.258 28.166 31.923v45.025h-18.977v-41.866c0-10.698-4.822-18.522-16.117-18.522-10.386 0-17.469 7.526-17.469 18.379v42.009z" fill="#111949"/></svg>

<svg width="1085" height="331" viewBox="0 0 1085 331" fill="none" xmlns="http://www.w3.org/2000/svg">
<path d="M271.178 109.965C260.923 107.794 252.007 118.687 252.007 134.375C252.007 142.967 254.736 150.857 258.947 156.225L250.447 177.801C248.523 177.048 246.456 176.645 244.286 176.697C242.115 176.749 239.931 177.255 237.878 178.139L228.077 154.808C233.068 149.505 236.149 141.576 236.149 132.517C236.149 115.996 225.634 100.334 211.726 97.3831C196.583 94.1857 183.247 107.041 183.247 126.317C183.247 136.871 187.355 146.606 193.659 153.235L180.882 179.647C177.97 178.724 174.838 178.256 171.523 178.334C168.157 178.412 164.855 179.049 161.684 180.167L146.489 151.065C154.262 144.514 159.032 134.726 159.032 123.47C159.032 102.933 142.668 82.7735 120.584 78.1072C96.0182 72.934 73.8698 88.5575 73.8698 113.527C73.8698 138.496 96.0182 159.305 120.597 159.864C124.848 159.955 128.851 159.435 132.581 158.408L148.803 188.161C140.809 195.661 135.571 206.683 135.571 218.602C135.571 240.36 152.494 254.476 171.51 250.46C188.811 246.807 201.756 229.169 201.756 210.855C201.756 200.834 197.961 192.06 191.813 186.198L203.862 160.319C206.384 161.307 209.022 161.866 211.713 161.931C214.364 161.996 216.886 161.554 219.226 160.722L229.546 184.469C224.438 190.383 221.123 199.105 221.123 208.58C221.123 225.881 231.925 237.683 244.273 235.07C255.711 232.653 264.407 218.563 264.407 203.524C264.407 195.284 261.846 188.044 257.713 183.183L265.823 161.97C267.539 162.776 269.333 163.231 271.165 163.27C280.719 163.491 288.037 152.403 288.037 138.587C288.037 124.77 280.719 111.98 271.165 109.952L271.178 109.965ZM271.178 152.273C270.659 152.247 270.139 152.143 269.645 152.013C268.345 151.663 267.123 150.948 265.992 149.973C264.835 148.959 263.796 147.646 262.925 146.125C261.248 143.149 260.221 139.366 260.221 135.337C260.221 126.369 265.238 119.935 271.178 120.961C276.872 121.949 281.343 129.488 281.343 137.807C281.343 146.125 276.872 152.624 271.178 152.273ZM244.286 223.034C237.15 224.269 231.093 217.289 231.093 207.424C231.093 202.991 232.341 198.819 234.368 195.544C235.408 193.854 236.656 192.424 238.047 191.306C239.398 190.214 240.893 189.435 242.44 189.032C243.038 188.889 243.649 188.785 244.273 188.746C244.897 188.707 245.495 188.746 246.092 188.811C247.6 189.019 249.004 189.591 250.265 190.474C251.539 191.358 252.656 192.554 253.592 193.997C255.373 196.739 256.426 200.379 256.426 204.473C256.426 213.559 251.097 221.864 244.273 223.047L244.286 223.034ZM211.726 148.621C210.959 148.569 210.218 148.452 209.477 148.27C207.567 147.815 205.747 146.944 204.096 145.735C202.38 144.488 200.847 142.863 199.573 140.991C197.064 137.326 195.543 132.686 195.543 127.772C195.543 116.828 202.978 109.198 211.713 110.706C220.032 112.136 226.492 121.39 226.492 131.386C226.492 135.883 225.205 139.886 223.047 142.902C221.929 144.475 220.551 145.787 219.005 146.762C217.471 147.711 215.755 148.348 213.923 148.556C213.195 148.647 212.467 148.673 211.713 148.621H211.726ZM171.523 235.577C160.566 237.462 151.194 229.078 151.194 216.769C151.194 211.245 153.131 205.994 156.277 201.874C157.888 199.755 159.812 197.935 161.97 196.518C164.049 195.141 166.324 194.153 168.716 193.62C169.639 193.425 170.574 193.282 171.523 193.23C172.472 193.178 173.382 193.191 174.292 193.269C176.579 193.503 178.724 194.179 180.622 195.245C182.546 196.31 184.248 197.753 185.639 199.508C188.304 202.822 189.889 207.255 189.889 212.246C189.889 223.372 181.883 233.797 171.536 235.577H171.523ZM120.597 143.006C106.495 142.135 94.3285 129.956 94.3285 115.931C94.3285 101.906 106.495 92.5609 120.597 95.0045C133.842 97.2922 144.046 109.237 144.046 121.754C144.046 127.382 142.031 132.348 138.651 136.065C136.871 138.015 134.7 139.639 132.243 140.822C129.813 141.992 127.083 142.746 124.159 142.98C123.002 143.071 121.806 143.097 120.597 143.019V143.006Z" fill="#E44326"/>
<path d="M430.689 187.485L451.772 111.434H471.347L438.969 216.847H423.462L396.959 137.183L370.457 216.847H354.95L322.572 111.434H342.147L363.23 187.485L389.278 111.434H404.641L430.689 187.485Z" fill="#E44326"/>
<path d="M533.685 141.706H553.416L522.845 216.093L510.341 248.315H490.61L504.31 213.975L474.635 141.693H494.21L514.084 195.31L533.659 141.693L533.685 141.706Z" fill="#E44326"/>
<path d="M565.309 216.847V106.911H584.286V216.847H565.309Z" fill="#E44326"/>
<path d="M615.156 106.768C621.629 106.768 626.451 111.733 626.451 117.907C626.451 124.081 621.629 129.046 615.156 129.046C608.683 129.046 603.861 124.224 603.861 117.907C603.861 111.59 608.826 106.768 615.156 106.768ZM605.668 216.847V141.706H624.645V216.847H605.668Z" fill="#E44326"/>
<path d="M641.347 179.348C641.347 158.863 656.71 139.886 682.615 139.886C708.52 139.886 723.884 158.863 723.884 179.348C723.884 199.833 708.52 218.654 682.615 218.654C656.71 218.654 641.347 199.677 641.347 179.348ZM659.869 179.348C659.869 191.54 668.005 202.835 682.615 202.835C697.225 202.835 705.362 191.54 705.362 179.348C705.362 167.156 697.225 155.705 682.615 155.705C668.005 155.705 659.869 167.156 659.869 179.348Z" fill="#E44326"/>
<path d="M799.922 106.911H818.899V216.847H800.676V203.901C796.308 211.583 786.365 218.654 773.263 218.654C750.972 218.654 735.309 200.886 735.309 179.348C735.309 157.811 750.972 139.886 773.263 139.886C786.365 139.886 796.152 146.658 799.922 154.639V106.911ZM776.876 202.991C789.38 202.991 799.922 193.802 799.922 179.348C799.922 164.894 789.38 155.549 776.876 155.549C763.32 155.549 754.286 166.246 754.286 179.348C754.286 192.45 763.32 202.991 776.876 202.991Z" fill="#111949"/>
<path d="M885.006 159.916H880.938C865.73 159.916 858.646 168.807 858.646 183.403V216.834H839.669V141.693H858.035V157.953C861.649 146.06 871.735 141.082 884.993 141.082V159.903L885.006 159.916Z" fill="#111949"/>
<path d="M907.883 106.768C914.356 106.768 919.178 111.733 919.178 117.907C919.178 124.081 914.356 129.046 907.883 129.046C901.41 129.046 896.587 124.224 896.587 117.907C896.587 111.59 901.553 106.768 907.883 106.768ZM898.394 216.847V141.706H917.371V216.847H898.394Z" fill="#111949"/>
<path d="M957.73 216.847H938.753V141.706H957.119V154.509C960.589 145.774 970.377 139.899 982.114 139.899C1000.18 139.899 1010.28 153.157 1010.28 171.822V216.847H991.303V174.981C991.303 164.283 986.481 156.459 975.186 156.459C964.8 156.459 957.717 163.985 957.717 174.838V216.847H957.73Z" fill="#111949"/>
</svg>
